src/icons/hds/ui/menu-hamburger.svg

<svg viewBox="0 0 24 24" role="img" xmlns="http://www.w3.org/2000/svg"><g fill="none" fill-rule="evenodd"><path d="M0 0h24v24H0z"/><path d="M22 17v2H2v-2h20zm0-6v2H2v-2h20zm0-6v2H2V5h20z" fill="currentColor"/></g></svg>

<svg xmlns="http://www.w3.org/2000/svg" width="24" height="24" viewBox="0 0 24 24">
  <g fill="none" fill-rule="evenodd">
    <rect width="24" height="24"/>
    <path fill="currentColor" d="M22,17 L22,19 L2,19 L2,17 L22,17 Z M22,11 L22,13 L2,13 L2,11 L22,11 Z M22,5 L22,7 L2,7 L2,5 L22,5 Z"/>
  </g>
</svg>
